!!!SOCIAL_FUNCTION:	songs used in the treatment of the sick
!!!PDT:	1922
!!!OTL: No_60_Song_Used_in_Treatment_of_Sick_(i).krn
!!!REG: Southwest
!!!LANG: Non-Tone
!!!LING_GROUP: Uto-Aztecan
**kern
*staff1
=1-
*clefF4
*k[f#]
*M2/4
2e\
=2
8d\L
8A\J
4d\
=3||
*M3/4
8A\L
8G\J
8G\L
8A\J
4A\
=4||
*M2/4
8A\L
8B\J
8B\L
8A\J
=5
4B\
4G\
=6
[2G\
=7
4G\]
8G\L
8A\J
=8||
*M3/4
2A\
8G\L
8A\J
=9
2A\
8G\L
8A\J
=10
16B\LK
8.G\J
2G\
=11||
*M2/4
2G\
=12||
*M3/4
2G\
8G\L
8d\J
=13||
*M2/4
2d\
=14||
*M3/4
2A\
8G\L
8A\J
=15
2B\
4G\
=16
2G\
8G\L
8A\J
=17
2A\
8G\L
8A\J
=18||
*M2/4
4.B\
8G\
=19||
*M3/4
2G\
8G\L
8A\J
=20
2A\
8G\L
8A\J
=21
2A\
4G\
=22||
*M2/4
4.G\
8G\
=23||
*M3/4
2G\
8G\L
8B\J
=24
2B\
8G\L
8A\J
=25
2A\
8G\L
8A\J
=26
4.B\
8G\
12A\L
12G\
12A\J
=27||
*M2/4
4G\
8.G\L
16G\Jk
=28
2G\
=29
2G\
==
*-
